assets/svg/app/staking-l2-logo.svg

<svg width="112" height="33" viewBox="0 0 112 33" fill="none" xmlns="http://www.w3.org/2000/svg">
<path d="M57.1634 19.9537C57.9279 19.9537 58.5595 20.5673 58.5595 21.31V21.8267H60.1716V21.1485C60.1716 19.7761 58.9417 18.5813 57.529 18.5813H52.7424C51.2798 18.5813 50.0831 19.76 50.0831 21.1485V22.2626C50.0831 23.6835 51.313 24.8299 52.7424 24.8299H57.3462C58.1107 24.8299 58.7257 25.4435 58.7257 26.1862V27.155C58.7257 27.8977 58.1107 28.5113 57.3462 28.5113H53.0083C52.2437 28.5113 51.6122 27.9139 51.6122 27.1712V26.6545H50V27.3326C50 28.7051 51.2299 29.8837 52.6426 29.8837H57.6952C59.1578 29.8837 60.3378 28.7051 60.3378 27.3165V26.0248C60.3378 24.6039 59.1246 23.4575 57.6952 23.4575H53.0914C52.3268 23.4575 51.6953 22.8439 51.6953 22.1012V21.31C51.6953 20.5673 52.3268 19.9537 53.0914 19.9537H57.1634Z" fill="white"/>
<path d="M67.4065 28.5759H65.9107C65.196 28.5759 64.7307 28.1238 64.7307 27.4295V22.4403H67.4232V21.1324H64.7307V19.211H63.2182V21.1324H61.6559V22.4403H63.2182V27.6071C63.2182 28.9311 64.2321 29.8837 65.5617 29.8837H67.4065V28.5759Z" fill="white"/>
<path d="M71.6837 28.5759C70.969 28.5759 70.4039 28.0431 70.4039 27.3488V23.6835C70.4039 22.9731 70.969 22.4403 71.6837 22.4403H75.5894V28.0915C75.5894 28.3983 75.3568 28.5759 75.0742 28.5759H71.6837ZM74.3928 29.8837L75.5894 28.915V29.8837H77.1019V21.1324H71.3346C70.0216 21.1324 68.8915 22.1819 68.8915 23.5059V27.5264C68.8915 28.8019 69.9884 29.8837 71.3346 29.8837H74.3928Z" fill="white"/>
<path d="M85.6142 21.1324L80.9439 25.1206V18H79.4315V29.8837H80.9439V25.6695L85.9965 29.8837H88.0408L82.5062 25.3466L87.6253 21.1324H85.6142Z" fill="white"/>
<path d="M89.4304 21.1324V29.8837H90.9428V21.1324H89.4304ZM89.4304 18.2422V19.9214H90.9428V18.2422H89.4304Z" fill="white"/>
<path d="M94.8375 22.9247C94.8375 22.634 95.0701 22.4403 95.3527 22.4403H98.8596C99.5909 22.4403 100.139 22.9731 100.139 23.6835V29.8837H101.652V23.5059C101.652 22.1819 100.538 21.1324 99.2086 21.1324H96.0009L94.8375 22.0689V21.1324H93.325V29.8837H94.8375V22.9247Z" fill="white"/>
<path d="M106.499 28.3014C105.784 28.3014 105.219 27.7686 105.219 27.0581V23.6835C105.219 22.9731 105.784 22.4403 106.499 22.4403H110.488V27.817C110.488 28.1076 110.255 28.3014 109.972 28.3014H106.499ZM109.573 33C110.936 33 112 31.9343 112 30.6426V21.1324H106.15C104.837 21.1324 103.706 22.1819 103.706 23.5059V27.2357C103.706 28.5274 104.803 29.6093 106.15 29.6093H109.291L110.488 28.6243V30.5135C110.488 31.2078 109.939 31.7406 109.224 31.7406H106.881C106.166 31.7406 105.618 31.2078 105.618 30.5135V30.2713H104.122V30.6588C104.122 31.9666 105.236 33 106.565 33H109.573Z" fill="white"/>
<rect x="50" width="62" height="12" rx="0.5" fill="url(#paint0_linear)"/>
<path d="M65.6345 9V7.695H62.3045V2.61H60.6665V9H65.6345ZM69.0273 2.61L66.3363 9H68.0373L68.5773 7.596H71.4303L71.9703 9H73.6713L70.9803 2.61H69.0273ZM69.6843 4.707C69.7743 4.455 69.9183 4.059 69.9903 3.726H70.0173C70.0893 4.059 70.2243 4.455 70.3233 4.707L71.0073 6.489H69.0003L69.6843 4.707ZM77.1002 6.75L79.6832 2.61H77.9282L76.4792 5.076C76.3802 5.247 76.3262 5.373 76.2992 5.49H76.2812C76.2542 5.373 76.2002 5.247 76.1012 5.076L74.6702 2.61H72.8792L75.4532 6.75V9H77.1002V6.75ZM82.1877 5.175V3.789H85.7967V2.61H80.5497V9H85.8597V7.821H82.1877V6.309H85.6437V5.175H82.1877ZM93.3384 9L91.8084 6.408C92.7534 6.102 93.1404 5.355 93.1404 4.599C93.1404 3.51 92.4744 2.61 90.6834 2.61H87.2184V9H88.8564V6.624H90.1704L91.5294 9H93.3384ZM90.3324 3.735C91.1334 3.735 91.4214 4.113 91.4214 4.617C91.4214 5.139 91.1244 5.544 90.3324 5.544H88.8564V3.735H90.3324ZM102.664 9V7.776H99.3067C100.144 7.452 100.81 7.101 101.323 6.741C102.142 6.147 102.574 5.499 102.574 4.617C102.574 3.33 101.575 2.592 99.8827 2.592C98.2177 2.592 97.0927 3.384 97.0927 4.635C97.0927 4.779 97.1017 4.923 97.1287 5.058L98.7397 5.211C98.7127 5.058 98.6947 4.914 98.6947 4.797C98.6947 4.158 99.1177 3.78 99.8197 3.78C100.54 3.78 100.9 4.167 100.9 4.734C100.9 5.319 100.648 5.751 99.9457 6.273C99.2617 6.768 98.2447 7.335 97.0657 7.893V9H102.664Z" fill="#06061B"/>
<path d="M10.4231 6.98991C10.1215 6.64998 9.75012 6.47961 9.30823 6.47961H0.270814C0.190543 6.47961 0.124866 6.45458 0.0754064 6.40452C0.0251355 6.35527 0 6.29955 0 6.23981V0.239806C0 0.180056 0.0251355 0.125151 0.0754064 0.0750908C0.124866 0.0250303 0.190543 0 0.270814 0H9.82066C12.2304 0 14.3094 0.970529 16.0567 2.90997L18.3764 5.69964L13.8577 11.1296L10.4231 6.98991ZM27.113 2.8801C28.8604 0.960032 30.949 0 33.3791 0H42.8989C42.9792 0 43.0392 0.0201857 43.0797 0.0597497C43.1195 0.100121 43.1397 0.159871 43.1397 0.239806V6.23981C43.1397 6.29955 43.1195 6.35527 43.0797 6.40452C43.0392 6.45458 42.9792 6.47961 42.8989 6.47961H33.8615C33.4196 6.47961 33.0483 6.64998 32.7466 6.98991L26.089 14.9697L32.7766 23.0093C33.0783 23.3298 33.4391 23.4897 33.8615 23.4897H42.8989C42.9792 23.4897 43.0392 23.5147 43.0797 23.5648C43.1195 23.6149 43.1397 23.6803 43.1397 23.7594V29.7594C43.1397 29.8191 43.1195 29.8748 43.0797 29.9241C43.0392 29.9742 42.9792 29.9992 42.8989 29.9992H33.3791C30.949 29.9992 28.8701 29.0295 27.143 27.0892L21.6003 20.4295L16.0567 27.0892C14.3094 29.0295 12.2207 29.9992 9.79066 29.9992H0.270814C0.190543 29.9992 0.129731 29.9742 0.0900011 29.9241C0.0494601 29.874 0.0300004 29.8094 0.0300004 29.7287V23.7287C0.0300004 23.669 0.0494601 23.614 0.0900011 23.564C0.129731 23.5139 0.190543 23.4889 0.270814 23.4889H9.30823C9.72985 23.4889 10.1012 23.3193 10.4231 22.9786L16.9599 15.1191L27.113 2.8801Z" fill="#00D1FF"/>
<defs>
<linearGradient id="paint0_linear" x1="76.9344" y1="-7.80001" x2="81.8559" y2="21.9745" gradientUnits="userSpaceOnUse">
<stop stop-color="#ED1EFF"/>
<stop offset="1" stop-color="#00D1FF"/>
</linearGradient>
</defs>
</svg>

<svg width="112" height="33" fill="none" xmlns="http://www.w3.org/2000/svg">
    <path d="M57.163 19.954c.765 0 1.397.613 1.397 1.356v.517h1.612v-.679c0-1.372-1.23-2.567-2.643-2.567h-4.787c-1.462 0-2.659 1.179-2.659 2.567v1.115c0 1.42 1.23 2.567 2.66 2.567h4.603c.765 0 1.38.614 1.38 1.356v.969a1.37 1.37 0 0 1-1.38 1.356h-4.338c-.764 0-1.396-.597-1.396-1.34v-.517H50v.679c0 1.372 1.23 2.55 2.643 2.55h5.052c1.463 0 2.643-1.178 2.643-2.566v-1.292c0-1.421-1.213-2.567-2.643-2.567h-4.604c-.764 0-1.396-.614-1.396-1.357v-.791c0-.743.632-1.356 1.396-1.356h4.072Zm10.243 8.622h-1.495c-.715 0-1.18-.452-1.18-1.146v-4.99h2.692v-1.308h-2.692v-1.921h-1.513v1.921h-1.562v1.308h1.562v5.167c0 1.324 1.014 2.277 2.344 2.277h1.844v-1.308Zm4.278 0c-.715 0-1.28-.533-1.28-1.227v-3.666c0-.71.565-1.243 1.28-1.243h3.905v5.651c0 .307-.232.485-.515.485h-3.39Zm2.709 1.308 1.196-.969v.969h1.513v-8.752h-5.767c-1.313 0-2.444 1.05-2.444 2.374v4.02c0 1.276 1.097 2.358 2.444 2.358h3.058Zm11.221-8.752-4.67 3.989V18H79.43v11.884h1.513v-4.215l5.052 4.215h2.045l-5.535-4.537 5.12-4.215h-2.012Zm3.816 0v8.752h1.513v-8.752H89.43Zm0-2.89v1.68h1.513v-1.68H89.43Zm5.408 4.683c0-.291.232-.485.515-.485h3.507c.73 0 1.279.533 1.279 1.243v6.2h1.513v-6.377c0-1.324-1.114-2.374-2.443-2.374H96l-1.163.937v-.937h-1.513v8.752h1.513v-6.96Zm11.661 5.376c-.715 0-1.28-.532-1.28-1.243v-3.375c0-.71.565-1.243 1.28-1.243h3.989v5.377c0 .29-.233.484-.516.484h-3.473ZM109.573 33c1.363 0 2.427-1.066 2.427-2.357v-9.51h-5.85c-1.313 0-2.444 1.049-2.444 2.373v3.73c0 1.291 1.097 2.373 2.444 2.373h3.141l1.197-.985v1.89c0 .694-.549 1.227-1.264 1.227h-2.343c-.715 0-1.263-.533-1.263-1.227v-.243h-1.496v.388c0 1.308 1.114 2.341 2.443 2.341h3.008Z" fill="#fff"/>
    <rect x="50" width="62" height="12" rx=".5" fill="url(#a)"/>
    <path d="M65.635 9V7.695h-3.33V2.61h-1.639V9h4.969Zm3.392-6.39L66.337 9h1.7l.54-1.404h2.853L71.97 9h1.701l-2.69-6.39h-1.954Zm.657 2.097c.09-.252.234-.648.306-.981h.027c.072.333.207.729.306.981l.684 1.782H69l.684-1.782ZM77.1 6.75l2.583-4.14h-1.755L76.48 5.076a1.51 1.51 0 0 0-.18.414h-.018a1.51 1.51 0 0 0-.18-.414l-1.43-2.466H72.88l2.574 4.14V9H77.1V6.75Zm5.088-1.575V3.789h3.609V2.61H80.55V9h5.31V7.821h-3.672V6.309h3.456V5.175h-3.456ZM93.338 9l-1.53-2.592c.945-.306 1.332-1.053 1.332-1.809 0-1.089-.666-1.989-2.457-1.989h-3.465V9h1.638V6.624h1.314L91.53 9h1.808Zm-3.006-5.265c.801 0 1.09.378 1.09.882 0 .522-.298.927-1.09.927h-1.476V3.735h1.476ZM102.664 9V7.776h-3.357c.837-.324 1.503-.675 2.016-1.035.819-.594 1.251-1.242 1.251-2.124 0-1.287-.999-2.025-2.691-2.025-1.665 0-2.79.792-2.79 2.043 0 .144.009.288.036.423l1.61.153a2.51 2.51 0 0 1-.044-.414c0-.639.423-1.017 1.125-1.017.72 0 1.08.387 1.08.954 0 .585-.252 1.017-.954 1.539-.684.495-1.701 1.062-2.88 1.62V9h5.598Z" fill="#06061B"/>
    <path d="M10.423 6.99a1.432 1.432 0 0 0-1.115-.51H.271a.263.263 0 0 1-.196-.075A.227.227 0 0 1 0 6.24v-6A.23.23 0 0 1 .075.075.263.263 0 0 1 .271 0h9.55c2.41 0 4.488.97 6.236 2.91l2.32 2.79-4.52 5.43-3.434-4.14Zm16.69-4.11C28.86.96 30.949 0 33.379 0h9.52c.08 0 .14.02.18.06.04.04.06.1.06.18v6c0 .06-.02.115-.06.165-.04.05-.1.075-.18.075H33.86c-.441 0-.813.17-1.114.51l-6.658 7.98 6.688 8.04c.301.32.662.48 1.084.48h9.04c.08 0 .14.025.18.075.04.05.06.115.06.194v6c0 .06-.02.116-.06.165-.04.05-.1.075-.18.075h-9.52c-2.43 0-4.509-.97-6.236-2.91L21.6 20.43l-5.543 6.66C14.309 29.03 12.22 30 9.79 30H.27c-.08 0-.141-.025-.181-.075a.3.3 0 0 1-.06-.195v-6c0-.06.02-.115.06-.165.04-.05.1-.075.18-.075h9.038c.422 0 .793-.17 1.115-.51l6.537-7.86L27.113 2.88Z" fill="#00D1FF"/>
    <defs>
        <linearGradient id="a" x1="76.934" y1="-7.8" x2="81.856" y2="21.974" gradientUnits="userSpaceOnUse">
            <stop stop-color="#ED1EFF"/>
            <stop offset="1" stop-color="#00D1FF"/>
        </linearGradient>
    </defs>
</svg>
